X: 16215
T: Greengrass
R: reel
M: 4/4
K: Amajor
eAAf fefa|e2cA BAFA|a2f2 ecBA|EFAB BA3|
eAAf fefa|e2cA BAFA|a2f2 eBce|BAFE A4||
EFAB cefe|aebe c'ebe|aeee' eee'e|ee'ee cefe|
EFAB cefe|aefa ecBA|a3f eBce|BAFE A4||

